src/img/channel/channel_74.svg

<svg fill="none" height="41" viewBox="0 0 143 41" width="143" xmlns="http://www.w3.org/2000/svg"><path d="m77.4798 26.4979c0 4.4553-5.5113 4.1909-5.5113 4.1909h-5.5112v-8.0505h5.5112c5.6718-.0383 5.5113 3.8596 5.5113 3.8596zm-11.0225-16.1372h4.1996c4.3609.2318 4.1963 3.498 4.1963 3.498 0 4.0589-4.8221 4.1251-4.8221 4.1251h-3.5738zm10.0031 9.2062s3.7723-1.6171 3.7387-5.9062c0 0 .5737-7.02922-8.6842-7.88658h-10.2729v29.46818h11.7752s9.8387.0295 9.8387-8.3146c-.0001 0 .2325-5.6783-6.3955-7.3608zm-26.5859-19.5669h43.2508v41h-43.2508zm-22.2696 26.4979c0 4.4553-5.5114 4.1909-5.5114 4.1909h-5.5116v-8.0505h5.5116c5.6722-.0383 5.5114 3.8596 5.5114 3.8596zm-11.023-16.1372h4.2004c4.3611.2318 4.1961 3.498 4.1961 3.498 0 4.0589-4.8218 4.1251-4.8218 4.1251h-3.5747zm10.0039 9.2062s3.773-1.6171 3.7391-5.9062c0 0 .5733-7.02922-8.6847-7.88658h-10.2733v29.46818h11.7759s9.8386.0295 9.8386-8.3146c0 0 .2318-5.6783-6.3956-7.3608zm-26.5858-19.5669h43.2508v41h-43.2508zm134.177 7.88674v5.44426s-5.283-3.2657-11.12-3.33149c0 0-10.891-.21505-11.382 10.50199 0 0-.394 9.8558 11.251 10.4174 0 0 4.885.592 11.513-3.6597v5.6383s-8.891 5.3138-19.19 1.221c0 0-8.658-3.1804-8.988-13.617 0 0-.36-10.73416 11.187-14.2974 0 0 3.084-1.18751 8.625-.65972 0-.00014 3.312.32943 8.104 2.34236zm-34.4278 33.11326h43.2508v-41h-43.2508z" fill="#fff"/></svg>

<svg width="143" height="41" viewBox="0 0 143 41" fill="none" xmlns="http://www.w3.org/2000/svg">
<path d="M77.4798 26.4979C77.4798 30.9532 71.9685 30.6888 71.9685 30.6888H66.4573V22.6383H71.9685C77.6403 22.6 77.4798 26.4979 77.4798 26.4979ZM66.4573 10.3607H70.6569C75.0178 10.5925 74.8532 13.8587 74.8532 13.8587C74.8532 17.9176 70.0311 17.9838 70.0311 17.9838H66.4573V10.3607ZM76.4604 19.5669C76.4604 19.5669 80.2327 17.9498 80.1991 13.6607C80.1991 13.6607 80.7728 6.63148 71.5149 5.77412H61.242V35.2423H73.0172C73.0172 35.2423 82.8559 35.2718 82.8559 26.9277C82.8558 26.9277 83.0884 21.2494 76.4604 19.5669ZM49.8745 0H93.1253V41H49.8745V0ZM27.6049 26.4979C27.6049 30.9532 22.0935 30.6888 22.0935 30.6888H16.5819V22.6383H22.0935C27.7657 22.6 27.6049 26.4979 27.6049 26.4979ZM16.5819 10.3607H20.7823C25.1434 10.5925 24.9784 13.8587 24.9784 13.8587C24.9784 17.9176 20.1566 17.9838 20.1566 17.9838H16.5819V10.3607ZM26.5858 19.5669C26.5858 19.5669 30.3588 17.9498 30.3249 13.6607C30.3249 13.6607 30.8982 6.63148 21.6402 5.77412H11.3669V35.2423H23.1428C23.1428 35.2423 32.9814 35.2718 32.9814 26.9277C32.9814 26.9277 33.2132 21.2494 26.5858 19.5669ZM0 0H43.2508V41H0V0ZM134.177 7.88674V13.331C134.177 13.331 128.894 10.0653 123.057 9.99951C123.057 9.99951 112.166 9.78446 111.675 20.5015C111.675 20.5015 111.281 30.3573 122.926 30.9189C122.926 30.9189 127.811 31.5109 134.439 27.2592V32.8975C134.439 32.8975 125.548 38.2113 115.249 34.1185C115.249 34.1185 106.591 30.9381 106.261 20.5015C106.261 20.5015 105.901 9.76734 117.448 6.2041C117.448 6.2041 120.532 5.01659 126.073 5.54438C126.073 5.54424 129.385 5.87381 134.177 7.88674ZM99.7492 41H143V0H99.7492V41Z" fill="white"/>
</svg>
